src/assets/dark/IconCommentActive.svg

<svg width="44" height="44" viewBox="0 0 44 44" fill="none" xmlns="http://www.w3.org/2000/svg">
<g id="comments icon active">
<g id="Group 59">
<path id="Oval Copy 8" fill-rule="evenodd" clip-rule="evenodd" d="M21.8872 43.9902C33.7613 43.9902 43.3872 34.3644 43.3872 22.4902C43.3872 10.6161 33.7613 0.990234 21.8872 0.990234C10.0131 0.990234 0.387207 10.6161 0.387207 22.4902C0.387207 34.3644 10.0131 43.9902 21.8872 43.9902Z" fill="url(#paint0_linear)"/>
<path id="Vector" d="M30.8411 16.7435C29.9035 15.5914 28.6299 14.6813 27.0207 14.0135C25.4116 13.3457 23.6535 13.0117 21.7473 13.0117C20.3253 13.0117 18.9659 13.2089 17.6691 13.6034C16.3722 13.9978 15.2551 14.5309 14.3176 15.2026C13.3799 15.8744 12.634 16.6731 12.0792 17.5987C11.5244 18.5243 11.2471 19.4949 11.2471 20.5103C11.2471 21.6819 11.6005 22.7797 12.3076 23.803C13.0147 24.8261 13.9813 25.6855 15.208 26.3807C15.122 26.693 15.0204 26.9899 14.9032 27.2709C14.786 27.5521 14.6806 27.7828 14.5868 27.9625C14.493 28.1421 14.3662 28.3414 14.2059 28.5601C14.0459 28.7787 13.9248 28.9331 13.8427 29.0228C13.7607 29.1126 13.626 29.2613 13.4384 29.468C13.251 29.6752 13.1298 29.8098 13.0752 29.8724C13.0673 29.8761 13.0361 29.9115 12.9814 29.9778C12.9268 30.0441 12.8994 30.0772 12.8994 30.0772L12.8291 30.1825C12.7899 30.2413 12.7724 30.2783 12.7762 30.2936C12.7802 30.3089 12.7724 30.3482 12.7528 30.4106C12.7333 30.4732 12.7353 30.5201 12.7587 30.5515V30.5632C12.7901 30.7039 12.8584 30.8171 12.9638 30.9028C13.0692 30.9887 13.1885 31.0239 13.3212 31.008C13.8292 30.9456 14.2744 30.86 14.6572 30.7505C16.7041 30.2269 18.5011 29.282 20.0479 27.9148C20.6337 27.9773 21.2001 28.0086 21.747 28.0086C23.6533 28.0086 25.4112 27.6747 27.0205 27.0066C28.6298 26.3388 29.9033 25.4287 30.8407 24.2768C31.7783 23.1252 32.2471 21.8694 32.2471 20.5103C32.2471 19.1511 31.7784 17.8954 30.8411 16.7435Z" fill="white" fill-opacity="0.87"/>
</g>
</g>
<defs>
<linearGradient id="paint0_linear" x1="0.387208" y1="9.66632" x2="45.2335" y2="41.3962" gradientUnits="userSpaceOnUse">
<stop stop-color="#6C5BC2"/>
<stop offset="1" stop-color="#5A42AC"/>
</linearGradient>
</defs>
</svg>

<svg width="44" height="44" fill="none" xmlns="http://www.w3.org/2000/svg"><path fill-rule="evenodd" clip-rule="evenodd" d="M21.887 43.99c11.874 0 21.5-9.626 21.5-21.5S33.761.99 21.887.99s-21.5 9.626-21.5 21.5 9.626 21.5 21.5 21.5z" fill="url(#paint0_linear)"/><path d="M30.841 16.744c-.938-1.153-2.211-2.063-3.82-2.73-1.61-.668-3.367-1.002-5.274-1.002-1.422 0-2.781.197-4.078.591-1.297.395-2.414.928-3.351 1.6-.938.671-1.684 1.47-2.239 2.396-.555.925-.832 1.896-.832 2.911 0 1.172.354 2.27 1.06 3.293.708 1.023 1.674 1.883 2.901 2.578-.086.312-.188.609-.305.89a9.115 9.115 0 01-.316.691c-.094.18-.22.38-.381.598-.16.219-.281.373-.363.463l-.405.445a41.84 41.84 0 00-.363.404.828.828 0 00-.094.106l-.082.1-.07.105c-.04.058-.057.095-.053.11a.31.31 0 01-.023.118c-.02.062-.018.11.006.14v.012c.031.14.1.254.205.34a.459.459 0 00.357.105 8.8 8.8 0 001.336-.258c2.047-.523 3.844-1.468 5.39-2.835.587.062 1.153.094 1.7.094 1.906 0 3.664-.334 5.273-1.002 1.61-.668 2.883-1.578 3.82-2.73.938-1.152 1.407-2.408 1.407-3.767s-.469-2.615-1.406-3.767z" fill="#fff" fill-opacity=".87"/><defs><linearGradient id="paint0_linear" x1=".387" y1="9.666" x2="45.233" y2="41.396" gradientUnits="userSpaceOnUse"><stop stop-color="#6C5BC2"/><stop offset="1" stop-color="#5A42AC"/></linearGradient></defs></svg>
